svgs/sharp-thin/transporter-6.svg

<svg xmlns="http://www.w3.org/2000/svg" viewBox="0 0 512 512"><!--! Font Awesome Pro 6.6.0 by @fontawesome - https://fontawesome.com License - https://fontawesome.com/license (Commercial License) Copyright 2024 Fonticons, Inc. --><path d="M56 8l0-8L40 0l0 8 0 32L8 40 0 40 0 56l8 0 32 0 0 32 0 8 16 0 0-8 0-32 32 0 8 0 0-16-8 0L56 40 56 8zM472 360l0-8-16 0 0 8 0 32-32 0-8 0 0 16 8 0 32 0 0 32 0 8 16 0 0-8 0-32 32 0 8 0 0-16-8 0-32 0 0-32zM104 448l-8 0 0 8 0 48 0 8 16 0 0-8 0-40 288 0 0 40 0 8 16 0 0-8 0-48 0-8-8 0-304 0zM96 256l0 16 8 0 304 0 8 0 0-16-8 0-304 0-8 0zM232 0l-8 0 0 16 8 0 48 0 8 0 0-16-8 0L232 0z"/></svg>

<svg xmlns="http://www.w3.org/2000/svg" viewBox="0 0 512 512"><!--! Font Awesome Pro 6.5.2 by @fontawesome - https://fontawesome.com License - https://fontawesome.com/license (Commercial License) Copyright 2024 Fonticons, Inc. --><path d="M56 8V0H40V8 40H8 0V56H8 40V88v8H56V88 56H88h8V40H88 56V8zM472 360v-8H456v8 32H424h-8v16h8 32v32 8h16v-8V408h32 8V392h-8H472V360zM104 448H96v8 48 8h16v-8V464H400v40 8h16v-8V456v-8h-8H104zM96 256v16h8H408h8V256h-8H104 96zM232 0h-8V16h8 48 8V0h-8H232z"/></svg>
